; generated by PrusaSlicer 2.5.2+win64 on 2023-04-21 at 04:41:51 UTC


;
;
; 

; external perimeters extrusion width = 0.45mm
; perimeters extrusion width = 0.45mm
; infill extrusion width = 0.45mm
; solid infill extrusion width = 0.45mm
; top infill extrusion width = 0.40mm
; first layer extrusion width = 0.42mm

M73 P0 R15
M73 Q0 S15
M201 X1000 Y1000 Z200 E5000 ; sets maximum accelerations, mm/sec^2
M203 X200 Y200 Z12 E120 ; sets maximum feedrates, mm / sec
M204 P1250 R1250 T1250 ; sets acceleration (P, T) and retract acceleration (R), mm/sec^2
M205 X8.00 Y8.00 Z0.40 E4.50 ; sets the jerk limits, mm/sec
M205 S0 T0 ; sets the minimum extruding and travel feed rate, mm/sec
M107
;TYPE:Custom
M862.3 P "MK3SMMU2S" ; printer model check
M862.1 P0.4 ; nozzle diameter check
M115 U3.12.2 ; tell printer latest fw version
G90 ; use absolute coordinates
M83 ; extruder relative mode
M104 S215 ; set extruder temp
M140 S60 ; set bed temp
Tx
M190 S60 ; wait for bed temp
M109 S215 ; wait for extruder temp
G28 W ; home all without mesh bed level
G80 ; mesh bed leveling

;go outside print area
G1 Y-3 F1000
G1 Z0.4 F1000
; select extruder
Tc
; purge line
G1 X55 F2000
G1 Z0.3 F1000
G92 E0
G1 X240 E25 F2200
G1 Y-2 F1000
G1 X55 E25 F1400
G1 Z0.2 F1000
M73 P1 R14
M73 Q1 S14
G1 X5 E4 F1000

M221 S95
G92 E0

; Don't change E values below. Excessive value can damage the printer.

M907 E538 ; set extruder motor current
G21 ; set units to millimeters
G90 ; use absolute coordinates
M83 ; use relative distances for extrusion
M900 K0.05 ; Filament gcode LA 1.5
M900 K30 ; Filament gcode LA 1.0
M107
;LAYER_CHANGE
;Z:0.2
;HEIGHT:0.2
;BEFORE_LAYER_CHANGE
G92 E0.0
;0.2


G1 E-.8 F2100
G1 Z.4 F720
;AFTER_LAYER_CHANGE
;0.2
; printing object untitled.stl id:0 copy 0
G1 X105.787 Y85.787 F10800
G1 Z.2 F720
M73 P2 R14
M73 Q2 S14
G1 E.8 F2100
M204 S800
;TYPE:Perimeter
;WIDTH:0.419999
G1 F1200
G1 X144.213 Y85.787 E1.20481
G1 X144.213 Y124.213 E1.20481
G1 X105.787 Y124.213 E1.20481
G1 X105.787 Y85.847 E1.20293
M204 S1000
G1 X105.41 Y85.41 F10800
M204 S800
;TYPE:External perimeter
G1 F1200
G1 X144.59 Y85.41 E1.22846
G1 X144.59 Y124.59 E1.22846
M73 P3 R14
M73 Q3 S14
G1 X105.41 Y124.59 E1.22846
G1 X105.41 Y85.47 E1.22658
M204 S1000
G1 X105.796 Y85.514 F10800
;WIPE_START
G1 F8640
G1 X108.701 Y85.465 E-.76
;WIPE_END
G1 E-.04 F2100
G1 Z.6 F720
G1 X143.275 Y85.957 F10800
G1 Z.2 F720
G1 E.8 F2100
M204 S800
;TYPE:Solid infill
;WIDTH:0.422608
G1 F1200
G1 X143.874 Y86.555 E.02671
G1 X143.874 Y87.092 E.01695
G1 X142.908 Y86.126 E.0431
G1 X142.371 Y86.126 E.01695
G1 X143.874 Y87.629 E.06708
G1 X143.874 Y88.166 E.01695
G1 X141.834 Y86.126 E.09105
G1 X141.297 Y86.126 E.01695
G1 X143.874 Y88.703 E.11503
G1 X143.874 Y89.24 E.01695
G1 X140.76 Y86.126 E.139
G1 X140.223 Y86.126 E.01695
M73 Q4 S14
G1 X143.874 Y89.777 E.16298
G1 X143.874 Y90.314 E.01695
M73 P4 R14
G1 X139.686 Y86.126 E.18695
G1 X139.149 Y86.126 E.01695
G1 X143.874 Y90.851 E.21092
G1 X143.874 Y91.388 E.01695
G1 X138.612 Y86.126 E.2349
G1 X138.076 Y86.126 E.01695
G1 X143.874 Y91.924 E.25887
G1 X143.874 Y92.461 E.01695
G1 X137.539 Y86.126 E.28285
G1 X137.002 Y86.126 E.01695
G1 X143.874 Y92.998 E.30682
G1 X143.874 Y93.535 E.01695
G1 X136.465 Y86.126 E.3308
G1 X135.928 Y86.126 E.01695
G1 X143.874 Y94.072 E.35477
G1 X143.874 Y94.609 E.01695
G1 X135.391 Y86.126 E.37874
G1 X134.854 Y86.126 E.01695
G1 X143.874 Y95.146 E.40272
G1 X143.874 Y95.683 E.01695
G1 X134.317 Y86.126 E.42669
G1 X133.78 Y86.126 E.01695
G1 X143.874 Y96.22 E.45067
G1 X143.874 Y96.757 E.01695
G1 X133.243 Y86.126 E.47464
G1 X132.706 Y86.126 E.01695
G1 X143.874 Y97.294 E.49862
G1 X143.874 Y97.831 E.01695
G1 X132.169 Y86.126 E.52259
G1 X131.632 Y86.126 E.01695
M73 P5 R14
M73 Q5 S14
G1 X143.874 Y98.368 E.54657
G1 X143.874 Y98.905 E.01695
G1 X131.095 Y86.126 E.57054
G1 X130.558 Y86.126 E.01695
G1 X143.874 Y99.442 E.59451
G1 X143.874 Y99.979 E.01695
G1 X130.021 Y86.126 E.61849
G1 X129.484 Y86.126 E.01695
G1 X143.874 Y100.516 E.64246
G1 X143.874 Y101.053 E.01695
G1 X128.947 Y86.126 E.66644
G1 X128.41 Y86.126 E.01695
G1 X143.874 Y101.59 E.69041
G1 X143.874 Y102.127 E.01695
G1 X127.873 Y86.126 E.71439
G1 X127.336 Y86.126 E.01695
G1 X143.874 Y102.664 E.73836
G1 X143.874 Y103.201 E.01695
M73 P6 R14
M73 Q6 S14
G1 X126.799 Y86.126 E.76234
G1 X126.262 Y86.126 E.01695
G1 X143.874 Y103.738 E.78631
G1 X143.874 Y104.275 E.01695
G1 X125.725 Y86.126 E.81028
G1 X125.188 Y86.126 E.01695
G1 X143.874 Y104.812 E.83426
G1 X143.874 Y105.348 E.01695
G1 X124.652 Y86.126 E.85823
G1 X124.115 Y86.126 E.01695
G1 X143.874 Y105.885 E.88221
G1 X143.874 Y106.422 E.01695
G1 X123.578 Y86.126 E.90618
G1 X123.041 Y86.126 E.01695
M73 P7 R14
M73 Q7 S14
G1 X143.874 Y106.959 E.93016
G1 X143.874 Y107.496 E.01695
G1 X122.504 Y86.126 E.95413
G1 X121.967 Y86.126 E.01695
G1 X143.874 Y108.033 E.9781
G1 X143.874 Y108.57 E.01695
G1 X121.43 Y86.126 E1.00208
G1 X120.893 Y86.126 E.01695
G1 X143.874 Y109.107 E1.02605
G1 X143.874 Y109.644 E.01695
G1 X120.356 Y86.126 E1.05003
M73 Q8 S14
G1 X119.819 Y86.126 E.01695
M73 P8 R13
M73 Q8 S13
G1 X143.874 Y110.181 E1.074
G1 X143.874 Y110.718 E.01695
G1 X119.282 Y86.126 E1.09798
G1 X118.745 Y86.126 E.01695
G1 X143.874 Y111.255 E1.12195
G1 X143.874 Y111.792 E.01695
G1 X118.208 Y86.126 E1.14593
G1 X117.671 Y86.126 E.01695
G1 X143.874 Y112.329 E1.1699
G1 X143.874 Y112.866 E.01695
M73 P9 R13
M73 Q9 S13
G1 X117.134 Y86.126 E1.19387
G1 X116.597 Y86.126 E.01695
G1 X143.874 Y113.403 E1.21785
G1 X143.874 Y113.94 E.01695
G1 X116.06 Y86.126 E1.24182
G1 X115.523 Y86.126 E.01695
G1 X143.874 Y114.477 E1.2658
G1 X143.874 Y115.014 E.01695
M73 P10 R13
M73 Q10 S13
G1 X114.986 Y86.126 E1.28977
G1 X114.449 Y86.126 E.01695
G1 X143.874 Y115.551 E1.31375
G1 X143.874 Y116.088 E.01695
G1 X113.912 Y86.126 E1.33772
G1 X113.375 Y86.126 E.01695
G1 X143.874 Y116.625 E1.3617
G1 X143.874 Y117.162 E.01695
G1 X112.838 Y86.126 E1.38567
G1 X112.301 Y86.126 E.01695
M73 P11 R13
M73 Q11 S13
G1 X143.874 Y117.699 E1.40964
G1 X143.874 Y118.236 E.01695
G1 X111.764 Y86.126 E1.43362
G1 X111.228 Y86.126 E.01695
G1 X143.874 Y118.772 E1.45759
G1 X143.874 Y119.309 E.01695
G1 X110.691 Y86.126 E1.48157
G1 X110.154 Y86.126 E.01695
M73 P12 R13
M73 Q12 S13
G1 X143.874 Y119.846 E1.50554
G1 X143.874 Y120.383 E.01695
G1 X109.617 Y86.126 E1.52952
G1 X109.08 Y86.126 E.01695
G1 X143.874 Y120.92 E1.55349
G1 X143.874 Y121.457 E.01695
M73 P13 R13
M73 Q13 S13
G1 X108.543 Y86.126 E1.57746
G1 X108.006 Y86.126 E.01695
G1 X143.874 Y121.994 E1.60144
G1 X143.874 Y122.531 E.01695
G1 X107.469 Y86.126 E1.62541
G1 X106.932 Y86.126 E.01695
G1 X143.874 Y123.068 E1.64939
G1 X143.874 Y123.605 E.01695
M73 P14 R13
M73 Q14 S13
G1 X106.395 Y86.126 E1.67336
G1 X106.126 Y86.126 E.00848
G1 X106.126 Y86.395 E.00848
G1 X143.605 Y123.874 E1.67336
G1 X143.068 Y123.874 E.01695
M73 P14 R12
M73 Q14 S12
G1 X106.126 Y86.932 E1.64939
G1 X106.126 Y87.469 E.01695
M73 P15 R12
M73 Q15 S12
G1 X142.531 Y123.874 E1.62541
G1 X141.994 Y123.874 E.01695
G1 X106.126 Y88.006 E1.60144
G1 X106.126 Y88.543 E.01695
G1 X141.457 Y123.874 E1.57746
G1 X140.92 Y123.874 E.01695
G1 X106.126 Y89.08 E1.55349
G1 X106.126 Y89.617 E.01695
M73 P16 R12
M73 Q16 S12
G1 X140.383 Y123.874 E1.52951
G1 X139.846 Y123.874 E.01695
G1 X106.126 Y90.154 E1.50554
G1 X106.126 Y90.691 E.01695
G1 X139.309 Y123.874 E1.48157
G1 X138.772 Y123.874 E.01695
G1 X106.126 Y91.228 E1.45759
G1 X106.126 Y91.765 E.01695
M73 P17 R12
M73 Q17 S12
G1 X138.235 Y123.874 E1.43362
G1 X137.699 Y123.874 E.01695
G1 X106.126 Y92.301 E1.40964
G1 X106.126 Y92.838 E.01695
G1 X137.162 Y123.874 E1.38567
G1 X136.625 Y123.874 E.01695
G1 X106.126 Y93.375 E1.36169
G1 X106.126 Y93.912 E.01695
M73 P18 R12
M73 Q18 S12
G1 X136.088 Y123.874 E1.33772
G1 X135.551 Y123.874 E.01695
G1 X106.126 Y94.449 E1.31374
G1 X106.126 Y94.986 E.01695
G1 X135.014 Y123.874 E1.28977
G1 X134.477 Y123.874 E.01695
G1 X106.126 Y95.523 E1.2658
G1 X106.126 Y96.06 E.01695
M73 P19 R12
M73 Q19 S12
G1 X133.94 Y123.874 E1.24182
G1 X133.403 Y123.874 E.01695
G1 X106.126 Y96.597 E1.21785
G1 X106.126 Y97.134 E.01695
G1 X132.866 Y123.874 E1.19387
G1 X132.329 Y123.874 E.01695
G1 X106.126 Y97.671 E1.1699
G1 X106.126 Y98.208 E.01695
M73 Q20 S12
G1 X131.792 Y123.874 E1.14592
G1 X131.255 Y123.874 E.01695
M73 P20 R12
G1 X106.126 Y98.745 E1.12195
G1 X106.126 Y99.282 E.01695
G1 X130.718 Y123.874 E1.09797
G1 X130.181 Y123.874 E.01695
G1 X106.126 Y99.819 E1.074
G1 X106.126 Y100.356 E.01695
G1 X129.644 Y123.874 E1.05003
G1 X129.107 Y123.874 E.01695
G1 X106.126 Y100.893 E1.02605
G1 X106.126 Y101.43 E.01695
M73 P21 R12
M73 Q21 S12
G1 X128.57 Y123.874 E1.00208
G1 X128.033 Y123.874 E.01695
M73 P21 R11
M73 Q21 S11
G1 X106.126 Y101.967 E.9781
G1 X106.126 Y102.504 E.01695
G1 X127.496 Y123.874 E.95413
G1 X126.959 Y123.874 E.01695
G1 X106.126 Y103.041 E.93015
G1 X106.126 Y103.578 E.01695
G1 X126.422 Y123.874 E.90618
G1 X125.885 Y123.874 E.01695
M73 Q22 S11
G1 X106.126 Y104.115 E.88221
G1 X106.126 Y104.652 E.01695
M73 P22 R11
G1 X125.348 Y123.874 E.85823
G1 X124.811 Y123.874 E.01695
G1 X106.126 Y105.189 E.83426
G1 X106.126 Y105.725 E.01695
G1 X124.275 Y123.874 E.81028
G1 X123.738 Y123.874 E.01695
G1 X106.126 Y106.262 E.78631
G1 X106.126 Y106.799 E.01695
G1 X123.201 Y123.874 E.76233
G1 X122.664 Y123.874 E.01695
G1 X106.126 Y107.336 E.73836
G1 X106.126 Y107.873 E.01695
M73 P23 R11
M73 Q23 S11
G1 X122.127 Y123.874 E.71438
G1 X121.59 Y123.874 E.01695
G1 X106.126 Y108.41 E.69041
G1 X106.126 Y108.947 E.01695
G1 X121.053 Y123.874 E.66644
G1 X120.516 Y123.874 E.01695
G1 X106.126 Y109.484 E.64246
G1 X106.126 Y110.021 E.01695
G1 X119.979 Y123.874 E.61849
G1 X119.442 Y123.874 E.01695
G1 X106.126 Y110.558 E.59451
G1 X106.126 Y111.095 E.01695
G1 X118.905 Y123.874 E.57054
G1 X118.368 Y123.874 E.01695
G1 X106.126 Y111.632 E.54656
G1 X106.126 Y112.169 E.01695
G1 X117.831 Y123.874 E.52259
G1 X117.294 Y123.874 E.01695
M73 P24 R11
M73 Q24 S11
G1 X106.126 Y112.706 E.49861
G1 X106.126 Y113.243 E.01695
G1 X116.757 Y123.874 E.47464
G1 X116.22 Y123.874 E.01695
G1 X106.126 Y113.78 E.45067
G1 X106.126 Y114.317 E.01695
G1 X115.683 Y123.874 E.42669
G1 X115.146 Y123.874 E.01695
G1 X106.126 Y114.854 E.40272
G1 X106.126 Y115.391 E.01695
G1 X114.609 Y123.874 E.37874
G1 X114.072 Y123.874 E.01695
G1 X106.126 Y115.928 E.35477
G1 X106.126 Y116.465 E.01695
G1 X113.535 Y123.874 E.33079
G1 X112.998 Y123.874 E.01695
G1 X106.126 Y117.002 E.30682
G1 X106.126 Y117.539 E.01695
G1 X112.461 Y123.874 E.28285
G1 X111.924 Y123.874 E.01695
G1 X106.126 Y118.076 E.25887
G1 X106.126 Y118.613 E.01695
G1 X111.387 Y123.874 E.2349
G1 X110.851 Y123.874 E.01695
G1 X106.126 Y119.149 E.21092
G1 X106.126 Y119.686 E.01695
G1 X110.314 Y123.874 E.18695
G1 X109.777 Y123.874 E.01695
G1 X106.126 Y120.223 E.16297
G1 X106.126 Y120.76 E.01695
G1 X109.24 Y123.874 E.139
G1 X108.703 Y123.874 E.01695
G1 X106.126 Y121.297 E.11502
G1 X106.126 Y121.834 E.01695
M73 Q25 S11
G1 X108.166 Y123.874 E.09105
G1 X107.629 Y123.874 E.01695
M73 P25 R11
G1 X106.126 Y122.371 E.06708
G1 X106.126 Y122.908 E.01695
G1 X107.092 Y123.874 E.0431
G1 X106.555 Y123.874 E.01695
G1 X105.957 Y123.275 E.0267
M204 S1000
; stop printing object untitled.stl id:0 copy 0
M106 S84.15
;LAYER_CHANGE
;Z:0.4
;HEIGHT:0.2
;BEFORE_LAYER_CHANGE
G92 E0.0
;0.4


;WIPE_START
G1 F8640
G1 X106.555 Y123.874 E-.1953
G1 X107.092 Y123.874 E-.12399
G1 X106.126 Y122.908 E-.31523
G1 X106.126 Y122.371 E-.12399
G1 X106.131 Y122.376 E-.0015
;WIPE_END
G1 E-.04 F2100
G1 Z.6 F720
;AFTER_LAYER_CHANGE
;0.4
; printing object untitled.stl id:0 copy 0
G1 X105.632 Y85.632 F10800
G1 Z.4 F720
G1 E.8 F2100
M204 S800
;TYPE:Perimeter
;WIDTH:0.449999
G1 F3600
G1 X144.368 Y85.632 E1.31116
G1 X144.368 Y124.368 E1.31116
G1 X105.632 Y124.368 E1.31116
G1 X105.632 Y85.692 E1.30913
M204 S1000
G1 X105.225 Y85.225 F10800
M204 S800
;TYPE:External perimeter
G1 F2100
G1 X144.775 Y85.225 E1.33872
G1 X144.775 Y124.775 E1.33872
G1 X105.225 Y124.775 E1.33872
G1 X105.225 Y85.285 E1.33669
M204 S1000
G1 X105.611 Y85.329 F10800
;WIPE_START
G1 F8640
G1 X108.516 Y85.28 E-.76
;WIPE_END
G1 E-.04 F2100
G1 Z.8 F720
G1 X144.185 Y123.359 F10800
G1 Z.4 F720
M73 P26 R11
M73 Q26 S11
G1 E.8 F2100
;TYPE:Solid infill
;WIDTH:0.451342
G1 F11018.016
G1 X143.542 Y124.002 E.03086
G1 X142.965 Y124.002 E.01962
G1 X144.002 Y122.965 E.0498
G1 X144.002 Y122.387 E.01962
G1 X142.387 Y124.002 E.07754
G1 X141.809 Y124.002 E.01962
G1 X144.002 Y121.809 E.10528
G1 X144.002 Y121.232 E.01962
G1 X141.232 Y124.002 E.13302
G1 X140.654 Y124.002 E.01962
G1 X144.002 Y120.654 E.16076
G1 X144.002 Y120.077 E.01962
G1 X140.077 Y124.002 E.18851
G1 X139.499 Y124.002 E.01962
G1 X144.002 Y119.499 E.21625
G1 X144.002 Y118.921 E.01962
G1 X138.921 Y124.002 E.24399
G1 X138.344 Y124.002 E.01962
G1 X144.002 Y118.344 E.27173
G1 X144.002 Y117.766 E.01962
G1 X137.766 Y124.002 E.29947
G1 X137.189 Y124.002 E.01962
G1 X144.002 Y117.189 E.32721
G1 X144.002 Y116.611 E.01962
G1 X136.611 Y124.002 E.35495
G1 X136.033 Y124.002 E.01962
G1 X144.002 Y116.033 E.38269
G1 X144.002 Y115.456 E.01962
G1 X135.456 Y124.002 E.41043
G1 X134.878 Y124.002 E.01962
G1 X144.002 Y114.878 E.43817
G1 X144.002 Y114.301 E.01962
G1 X134.301 Y124.002 E.46591
G1 X133.723 Y124.002 E.01962
G1 X144.002 Y113.723 E.49365
G1 X144.002 Y113.145 E.01962
G1 X133.145 Y124.002 E.52139
G1 X132.568 Y124.002 E.01962
G1 X144.002 Y112.568 E.54913
G1 X144.002 Y111.99 E.01962
G1 X131.99 Y124.002 E.57687
G1 X131.413 Y124.002 E.01962
G1 X144.002 Y111.413 E.60461
G1 X144.002 Y110.835 E.01962
G1 X130.835 Y124.002 E.63235
G1 X130.257 Y124.002 E.01962
G1 X144.002 Y110.257 E.66009
G1 X144.002 Y109.68 E.01962
G1 X129.68 Y124.002 E.68783
G1 X129.102 Y124.002 E.01962
G1 X144.002 Y109.102 E.71557
G1 X144.002 Y108.525 E.01962
G1 X128.525 Y124.002 E.74331
G1 X127.947 Y124.002 E.01962
G1 X144.002 Y107.947 E.77105
G1 X144.002 Y107.369 E.01962
G1 X127.369 Y124.002 E.79879
G1 X126.792 Y124.002 E.01962
G1 X144.002 Y106.792 E.82653
G1 X144.002 Y106.214 E.01962
G1 X126.214 Y124.002 E.85427
G1 X125.637 Y124.002 E.01962
G1 X144.002 Y105.637 E.88201
G1 X144.002 Y105.059 E.01962
G1 X125.059 Y124.002 E.90975
G1 X124.481 Y124.002 E.01962
G1 X144.002 Y104.482 E.9375
G1 X144.002 Y103.904 E.01962
G1 X123.904 Y124.002 E.96524
G1 X123.326 Y124.002 E.01962
G1 X144.002 Y103.326 E.99298
G1 X144.002 Y102.749 E.01962
G1 X122.749 Y124.002 E1.02072
G1 X122.171 Y124.002 E.01962
M73 P27 R11
M73 Q27 S11
G1 X144.002 Y102.171 E1.04846
G1 X144.002 Y101.594 E.01962
G1 X121.594 Y124.002 E1.0762
G1 X121.016 Y124.002 E.01962
G1 X144.002 Y101.016 E1.10394
G1 X144.002 Y100.438 E.01962
G1 X120.438 Y124.002 E1.13168
G1 X119.861 Y124.002 E.01962
G1 X144.002 Y99.861 E1.15942
G1 X144.002 Y99.283 E.01962
G1 X119.283 Y124.002 E1.18716
G1 X118.706 Y124.002 E.01962
G1 X144.002 Y98.706 E1.2149
G1 X144.002 Y98.128 E.01962
G1 X118.128 Y124.002 E1.24264
G1 X117.55 Y124.002 E.01962
G1 X144.002 Y97.55 E1.27038
G1 X144.002 Y96.973 E.01962
G1 X116.973 Y124.002 E1.29812
G1 X116.395 Y124.002 E.01962
G1 X144.002 Y96.395 E1.32586
G1 X144.002 Y95.818 E.01962
G1 X115.818 Y124.002 E1.3536
G1 X115.24 Y124.002 E.01962
G1 X144.002 Y95.24 E1.38134
G1 X144.002 Y94.662 E.01962
G1 X114.662 Y124.002 E1.40908
G1 X114.085 Y124.002 E.01962
G1 X144.002 Y94.085 E1.43682
G1 X144.002 Y93.507 E.01962
G1 X113.507 Y124.002 E1.46456
G1 X112.93 Y124.002 E.01962
G1 X144.002 Y92.93 E1.4923
G1 X144.002 Y92.352 E.01962
G1 X112.352 Y124.002 E1.52004
G1 X111.774 Y124.002 E.01962
M73 P27 R10
G1 X144.002 Y91.774 E1.54778
G1 X144.002 Y91.197 E.01962
M73 Q27 S10
G1 X111.197 Y124.002 E1.57552
G1 X110.619 Y124.002 E.01962
G1 X144.002 Y90.619 E1.60326
G1 X144.002 Y90.042 E.01962
G1 X110.042 Y124.002 E1.631
G1 X109.464 Y124.002 E.01962
M73 P28 R10
M73 Q28 S10
G1 X144.002 Y89.464 E1.65874
G1 X144.002 Y88.886 E.01962
G1 X108.886 Y124.002 E1.68649
G1 X108.309 Y124.002 E.01962
G1 X144.002 Y88.309 E1.71423
G1 X144.002 Y87.731 E.01962
G1 X107.731 Y124.002 E1.74197
G1 X107.154 Y124.002 E.01962
G1 X144.002 Y87.154 E1.76971
G1 X144.002 Y86.576 E.01962
G1 X106.576 Y124.002 E1.79745
G1 X105.998 Y124.002 E.01961
G1 X144.002 Y85.998 E1.82519
G1 X143.424 Y85.998 E.01962
